icons/visio.svg

<!--
  - The MIT License (MIT)
  -
  - Copyright (c) 2015-2024 Elior "Mallowigi" Boukhobza
  -
  - Permission is hereby granted, free of charge, to any person obtaining a copy
  - of this software and associated documentation files (the "Software"), to deal
  - in the Software without restriction, including without limitation the rights
  - to use, copy, modify, merge, publish, distribute, sublicense, and/or sell
  - copies of the Software, and to permit persons to whom the Software is
  - furnished to do so, subject to the following conditions:
  -
  - The above copyright notice and this permission notice shall be included in all
  - copies or substantial portions of the Software.
  -
  - THE SOFTWARE IS PROVIDED "AS IS", WITHOUT WARRANTY OF ANY KIND, EXPRESS OR
  - IMPLIED, INCLUDING BUT NOT LIMITED TO THE WARRANTIES OF MERCHANTABILITY,
  - FITNESS FOR A PARTICULAR PURPOSE AND NONINFRINGEMENT. IN NO EVENT SHALL THE
  - AUTHORS OR COPYRIGHT HOLDERS BE LIABLE FOR ANY CLAIM, DAMAGES OR OTHER
  - LIABILITY, WHETHER IN AN ACTION OF CONTRACT, TORT OR OTHERWISE, ARISING FROM,
  - OUT OF OR IN CONNECTION WITH THE SOFTWARE OR THE USE OR OTHER DEALINGS IN THE
  - SOFTWARE.
  -
  -->

<svg  version="1.1" xmlns="http://www.w3.org/2000/svg" x="0px" y="0px" width="16px" height="16px"
     viewBox="0 0 512 512">
  <path fill="#82AAFF" data-iconColor="Visio"
        d="M493.6690674,54.5568657H291.6721191V13.6392803L0,65.0490494v381.9019165l291.6721191,51.4097595v-43.015686h201.9969482c10.1239014,0,18.3309326-8.2070312,18.3309326-18.3309326V72.8878098C512,62.7638969,503.7929688,54.5568657,493.6690674,54.5568657z M347.1229553,272.7172852l-55.4508362,0.0007019v-93.6006012h48.9334106l52.9016418,52.901123v89.0297089h-35.8920288l-0.0003967-37.8391418C357.5445251,277.085144,352.682312,272.7867737,347.1229553,272.7172852z M359.7899475,168.6255798L404,124.4150238l44.2100525,44.2100372L404,212.8356171L359.7899475,168.6255798z M291.6721191,293.7016602l44.9590149-0.0007629l0.0010376,77.6393433h-44.9600525V293.7016602z M146.8852386,338.3607178l-35.6721268-1.0491638L69.245903,175.7377625l31.4755402-2.0983582l28.8523331,122.7540894l29.9016266-126.9508057l35.1475525-1.5737762L146.8852386,338.3607178z M357.6157837,381.8320312l-0.0003967-39.8002014h46.3835754c5.7940674,0,10.4918213-4.6977539,10.4918213-10.4918213v-99.519455l55.9764404-55.9764252c4.5660095-4.9152985,3.6593323-11.0941315,0-14.8381348l-59.0481567-59.0476303c-4.0983582-4.0973358-10.7397766-4.0963135-14.8381348,0l-55.9754028,55.9754105h-48.9334106V80.7869492h193.0485535V427.016449H291.6721191v-34.692627l55.4518433,0.0000305C353.061554,392.2010803,357.5223083,387.8122559,357.6157837,381.8320312z"/>
</svg>

<svg xmlns="http://www.w3.org/2000/svg" viewBox="0 0 512 512"><path fill="#82aaff" d="M493.67 54.557H291.671V13.639L0 65.05v381.902l291.672 51.41v-43.016H493.67c10.124 0 18.331-8.207 18.331-18.33V72.887c0-10.124-8.207-18.331-18.33-18.331m-146.547 218.16-55.45.001v-93.6h48.933l52.901 52.9v89.03h-35.892V283.21c-.07-6.124-4.933-10.422-10.492-10.492m12.667-104.091L404 124.415l44.21 44.21-44.21 44.21zm-68.118 125.076 44.96-.001v77.64h-44.96zM146.885 338.36l-35.672-1.05-41.967-161.573 31.475-2.099 28.853 122.754 29.901-126.95 35.148-1.574zm210.73 43.471v-39.8H404c5.794 0 10.492-4.698 10.492-10.492v-99.52l55.976-55.976c4.566-4.915 3.66-11.094 0-14.838l-59.048-59.048c-4.098-4.097-10.74-4.096-14.838 0l-55.975 55.976h-48.934V80.787h193.049v346.23h-193.05v-34.693h55.452c5.938-.123 10.398-4.512 10.492-10.492" data-iconColor="Visio"/></svg>
